X: 38779
T: Stuck In The Bog
R: jig
M: 6/8
K: Gmajor
|:Gdd Bdd|Gdd c2B|Gdd cBc|dB/c/d fga|
Gdd Bdd|cBc def|agf gfe|dBG ABA:|
|:GBd gfg|GBd c2B|GBd ~g3|afd ecA|
GBd ~g3|dBd efg|bag gfe|dBG ABA:|

